build/img/landings/motion/motylearn/4.svg

<svg width="248" height="168" viewBox="0 0 248 168" fill="none" xmlns="http://www.w3.org/2000/svg">
<path d="M240.149 7.19922H7.19922V160.799H240.149V7.19922Z" fill="white"/>
<path d="M240 0H7.19998C3.14998 0 0 3.14989 0 7.19989V160.8C0 164.85 3.14998 168 7.19998 168H240.15C244.2 168 247.35 164.85 247.35 160.8V7.19989C247.35 3.29989 244.05 0 240 0ZM14.4 14.4H232.95V153.6H14.4V14.4Z" fill="#FF98E1"/>
<path d="M86.3994 31.1992V134.549L173.549 79.3494L86.3994 31.1992Z" fill="#FF98E1"/>
</svg>

<svg width="248" height="168" fill="none" xmlns="http://www.w3.org/2000/svg"><path d="M240.149 7.2H7.199v153.599h232.95V7.199z" fill="#fff"/><path d="M240 0H7.2C3.15 0 0 3.15 0 7.2v153.6c0 4.05 3.15 7.2 7.2 7.2h232.95c4.05 0 7.2-3.15 7.2-7.2V7.2c0-3.9-3.3-7.2-7.35-7.2zM14.4 14.4h218.55v139.2H14.4V14.4z" fill="#FF98E1"/><path d="M86.4 31.2v103.349l87.149-55.2-87.15-48.15z" fill="#FF98E1"/></svg>
